X:145
T:Shealing in the Braes of Rannoch, The
T:Bothan airidh 'm braighe Raineach
R:Slow Air
S:Simon Fraser Collection
N:No.54
O:Scottish
M:3/4
L:1/8
Q:1/4=100
K:G Minor
G>A|d2f2 =e>c|d2c zG>A|d2 f2 =e>d|c2F zc>A|
c2d2 c>d|F2G zd>c|A2F2G2|A2G z||
d>^f|g2b2a>g|f2d zd>^f|g2b2a>g|f2d zf>=e|
d2c zA>G|F2G zd>c|A2F2G2|A2G z||

